svg/regular/bx-bookmark-plus.svg

<svg xmlns="http://www.w3.org/2000/svg" width="24" height="24"><path d="M13 14v-3h3V9h-3V6h-2v3H8v2h3v3z"/><path d="M20 22V4c0-1.103-.897-2-2-2H6c-1.103 0-2 .897-2 2v18l8-4.572L20 22zM6 10V4h12v14.553l-6-3.428-6 3.428V10z"/></svg>

<svg xmlns="http://www.w3.org/2000/svg" width="24" height="24" viewBox="0 0 24 24"><path d="M13 14L13 11 16 11 16 9 13 9 13 6 11 6 11 9 8 9 8 11 11 11 11 14z"/><path d="M20,22V10V9.276V4c0-1.103-0.897-2-2-2H6C4.897,2,4,2.897,4,4v5.276V10v12l8-4.572L20,22z M6,10V9.276V4h12v5.276V10v8.553 l-6-3.428l-6,3.428V10z"/></svg>
